data/styles/clear/style-night/symbols/train-m.svg

<svg height="24" viewBox="0 0 24 24" width="24"><g fill="none" fill-rule="evenodd"><rect fill="#fff" height="24" opacity=".4" rx="2.5" width="24"/><rect fill="#204366" height="22" rx="2" width="22" x="1" y="1"/><path d="m9.98815609 5c-.55199428 0-1.3650411.27503853-1.7986638.60127953l-.39473019.29697977c-.4413803.33207751-.7971528 1.05785273-.79475001 1.59643433l.03779211 8.47101817c.01530791.4998463.51358532.9996926 1.01186274.9996926h8.96899346c.4982774 0 .9890867-.3290061.9812469-.9996926l-.0377921-8.47101817c-.002452-.54960882-.3700068-1.27019334-.8036295-1.59643433l-.3947301-.29697977c-.4413803-.33207751-1.256897-.60127953-1.7986638-.60127953zm-.60899364 2.73138011c.37576655-.40121583 1.12061815-.72646552 1.68426525-.72646552h2.9529805c.5544275 0 1.3052256.33549393 1.6782516.7507908l.3121379.34750889v2.83344302c0 .5576723-.4577073 1.009755-.9994741 1.009755h-4.9769357c-.55199426 0-.99947405-.4408636-.99947405-1.009755v-2.83344302zm.64830625 6.84203919c0 .4140867-.33463316.7497694-.74741614.7497694-.41278297 0-.74741612-.3356827-.74741612-.7497694 0-.4140866.33463315-.7497694.74741612-.7497694.41278298 0 .74741614.3356828.74741614.7497694zm-.06913537 4.3919851h5.08333337l-1.0416667-2h1.875l3.125 6h-1.875l-1.0416667-2h-7.16666664l-1.04166666 2h-1.875l3.125-6h1.875zm5.79932557-5.1417545c.412783 0 .7474162.3356828.7474162.7497694 0 .4140867-.3346332.7497694-.7474162.7497694-.4127829 0-.7474161-.3356827-.7474161-.7497694 0-.4140866.3346332-.7497694.7474161-.7497694z" fill="#fff" opacity=".6"/></g></svg>

<svg width="24" height="24" viewBox="0 0 24 24">
  <g fill="none" fill-rule="evenodd">
    <rect width="24" height="24" fill="#FFF" opacity=".4" rx="2.5"/>
    <rect width="22" height="22" x="1" y="1" fill="#1F4366" rx="2"/>
    <path fill="#FFF" d="M9.98815609,5 C9.43616181,5 8.62311499,5.27503853 8.18949229,5.60127953 L7.7947621,5.8982593 C7.3533818,6.23033681 6.9976093,6.95611203 7.00001209,7.49469363 L7.0378042,15.9657118 C7.05311211,16.4655581 7.55138952,16.9654044 8.04966694,16.9654044 L17.0186604,16.9654044 C17.5169378,16.9654044 18.0077471,16.6363983 17.9999073,15.9657118 L17.9621152,7.49469363 C17.9596632,6.94508481 17.5921084,6.22450029 17.1584857,5.8982593 L16.7637556,5.60127953 C16.3223753,5.26920202 15.5068586,5 14.9650918,5 L9.98815609,5 Z M9.37916245,7.73138011 C9.754929,7.33016428 10.4997806,7.00491459 11.0634277,7.00491459 L14.0164082,7.00491459 C14.5708357,7.00491459 15.3216338,7.34040852 15.6946598,7.75570539 L16.0067977,8.10321428 L16.0067977,10.9366573 C16.0067977,11.4943296 15.5490904,11.9464123 15.0073236,11.9464123 L10.0303879,11.9464123 C9.47839364,11.9464123 9.03091385,11.5055487 9.03091385,10.9366573 L9.03091385,8.10321428 L9.37916245,7.73138011 Z M10.0274687,14.5734193 C10.0274687,14.987506 9.69283554,15.3231887 9.28005256,15.3231887 C8.86726959,15.3231887 8.53263644,14.987506 8.53263644,14.5734193 C8.53263644,14.1593327 8.86726959,13.8236499 9.28005256,13.8236499 C9.69283554,13.8236499 10.0274687,14.1593327 10.0274687,14.5734193 Z M9.95833333,18.9654044 L11,16.9654044 L9.125,16.9654044 L6,22.9654044 L7.875,22.9654044 L8.91666666,20.9654044 L16.0833333,20.9654044 L17.125,22.9654044 L19,22.9654044 L15.875,16.9654044 L14,16.9654044 L15.0416667,18.9654044 L9.95833333,18.9654044 Z M15.7576589,13.8236499 C16.1704419,13.8236499 16.5050751,14.1593327 16.5050751,14.5734193 C16.5050751,14.987506 16.1704419,15.3231887 15.7576589,15.3231887 C15.344876,15.3231887 15.0102428,14.987506 15.0102428,14.5734193 C15.0102428,14.1593327 15.344876,13.8236499 15.7576589,13.8236499 Z" opacity=".6"/>
  </g>
</svg>
